src/2-landmarks/ticket-office--receive.svg

<svg width="1300" height="1000" fill="none" xmlns="http://www.w3.org/2000/svg"><path d="M0 900h1300v100H0V900Z" fill="#000"/><path fill-rule="evenodd" clip-rule="evenodd" d="M1300 107H822c-8.284 0-15 6.716-15 15v28h493v7H807v343h130.551c.174-37.808 23.312-69.783 54.892-80.047L972 396l-8.349-33.081c-1.988-7.033 3.308-15.299 10.427-16.948 5.089-1.178 11.383 1.854 14.375 6.135L1013.5 386.5l42.5 42s13.5-22.5 33.87-53.282c25.63-27.218 48.97-34.623 85.95-34.197 40.12.434 65.13 5.804 80.18 34.979 17.52 36.035 23.43 91.5 23.43 93.162 0 9.784-.19 20.34-.47 30.838H1300v7H807v393h-7V120c0-11.046 8.954-20 20-20h480v7ZM944.551 500c.178-35.835 22.652-65.934 52.855-74.232l57.834 67.767a5.007 5.007 0 0 0 7.6.066l16.84-19.646c2.71 8.131 4.2 16.902 4.25 26.045H944.551Zm116.739-16.157 15.39-17.554c-11.41-25.337-35.11-42.789-62.44-42.789-2.91 0-5.77.198-8.59.581l51.08 59.739a3 3 0 0 0 4.56.023ZM1090.93 500c-.05-11.392-2.19-22.255-6.02-32.154l28.59-33.346-7 52.5-1.28 13h-14.29Zm23.57-12.5-1.23 12.5h119.93l-1.2-12-3.4-68.664a1.235 1.235 0 0 1 1.24-1.324c.61.005 1.13.462 1.21 1.07l7.46 50.009 2.81 30.909h30.01l.11-27.529h-.01s-4.44-56.684-20.98-91.956c-14.2-28.557-36.99-32.069-74.96-32.494-17.99-.213-58.49 2.979-80.27 32.494-16.86 26.105-28.52 44.688-34.06 53.574 8.42 7.144 15.44 16.159 20.55 26.469l37-42.202a.97.97 0 0 1 1.7.717l-5.91 68.427Zm-100.26-71c8.02 0 15.77 1.356 23.04 3.87L1006 390l-22.857-34.285a7.22 7.22 0 0 0-6.007-3.215c-4.816 0-8.282 4.626-6.929 9.248L979.5 393.5l20.85 24.38c4.5-.906 9.15-1.38 13.89-1.38Z" fill="#000"/><path fill-rule="evenodd" clip-rule="evenodd" d="M1189.65 333.086c-3.77 1.408-10.81 1.91-12.65 1.914 0 0-8.3-.069-13.14-1.914-5.44-2.079-8.48-4.109-12.16-8.575-2.49-3.022-4.44-8.223-5.32-10.853a22.077 22.077 0 0 1-.8-3.31l-4.09-24.154s-.5-3.492-.49-5.742c.02-5.351.75-8.493 2.92-13.398 2.23-5.038 4.18-7.735 8.27-11.484 4.35-3.996 7.49-5.742 13.13-7.625 4.38-1.462 7.06-1.907 11.68-1.945 4.96.167 6.81.479 11.55 1.945 4.74 1.577 9.58 4.373 13.26 7.625 3.68 3.252 6.26 7.101 8.27 11.484s2.92 8.615 2.92 13.398c0 1.803-.2 3.959-.49 5.742l-4.86 23.833a25.09 25.09 0 0 1-1.01 3.617c-1.04 2.793-3.21 8.177-5.32 10.829-2.92 3.676-7.16 6.929-11.67 8.613Zm-2.46-6.699c-3.04 1.186-8.71 1.609-10.19 1.613 0 0-6.69-.058-10.58-1.613-4.39-1.752-6.83-3.462-9.8-7.226-1.95-2.474-3.48-6.68-4.22-8.951a20.428 20.428 0 0 1-.74-3.184l-3.27-20.155s-.4-2.943-.39-4.839c.02-4.509.6-7.156 2.35-11.29 1.8-4.246 3.37-6.518 6.66-9.677 3.51-3.368 6.04-4.839 10.58-6.426 3.53-1.232 5.68-1.607 9.41-1.639 4 .141 5.49.403 9.3 1.639 3.82 1.329 7.72 3.685 10.69 6.426 2.96 2.74 5.04 5.983 6.66 9.677s2.35 7.26 2.35 11.29c0 1.52-.16 3.337-.39 4.839l-3.88 19.862a24.563 24.563 0 0 1-.93 3.486c-.87 2.407-2.56 6.742-4.21 8.91-2.35 3.098-5.77 5.839-9.4 7.258Z" fill="#000"/></svg>

<svg width="1300" height="1000" viewBox="0 0 1300 1000" fill="none" xmlns="http://www.w3.org/2000/svg">
<path d="M0 900H1300V1000H0V900Z" fill="black"/>
<path fill-rule="evenodd" clip-rule="evenodd" d="M1300 107H822C813.716 107 807 113.716 807 122V150H1300V157H807V500H937.551C937.725 462.192 960.863 430.217 992.443 419.953L972 396L963.651 362.919C961.663 355.886 966.959 347.62 974.078 345.971C979.167 344.793 985.461 347.825 988.453 352.106L1013.5 386.5L1056 428.5C1056 428.5 1069.5 406 1089.87 375.218C1115.5 348 1138.84 340.595 1175.82 341.021C1215.94 341.455 1240.95 346.825 1256 376C1273.52 412.035 1279.43 467.5 1279.43 469.162C1279.43 478.946 1279.24 489.502 1278.96 500H1300V507H807V900H800V120C800 108.954 808.954 100 820 100H1300V107ZM944.551 500C944.729 464.165 967.203 434.066 997.406 425.768L1055.24 493.535C1057.22 495.881 1060.82 495.913 1062.84 493.601L1079.68 473.955C1082.39 482.086 1083.88 490.857 1083.93 500H944.551ZM1061.29 483.843L1076.68 466.289C1065.27 440.952 1041.57 423.5 1014.24 423.5C1011.33 423.5 1008.47 423.698 1005.65 424.081L1056.73 483.82C1057.92 485.227 1060.09 485.238 1061.29 483.843ZM1090.93 500C1090.88 488.608 1088.74 477.745 1084.91 467.846L1113.5 434.5L1106.5 487L1105.22 500H1090.93ZM1114.5 487.5L1113.27 500H1233.2L1232 488L1228.6 419.336C1228.55 418.618 1229.12 418.005 1229.84 418.012C1230.45 418.017 1230.97 418.474 1231.05 419.082L1238.51 469.091L1241.32 500H1271.33L1271.44 472.471H1271.43C1271.43 472.471 1266.99 415.787 1250.45 380.515C1236.25 351.958 1213.46 348.446 1175.49 348.021C1157.5 347.808 1117 351 1095.22 380.515C1078.36 406.62 1066.7 425.203 1061.16 434.089C1069.58 441.233 1076.6 450.248 1081.71 460.558L1118.71 418.356C1118.89 418.143 1119.16 418.021 1119.44 418.021C1120.01 418.021 1120.46 418.507 1120.41 419.073L1114.5 487.5ZM1014.24 416.5C1022.26 416.5 1030.01 417.856 1037.28 420.37L1006 390L983.143 355.715C981.804 353.707 979.55 352.5 977.136 352.5C972.32 352.5 968.854 357.126 970.207 361.748L979.5 393.5L1000.35 417.88C1004.85 416.974 1009.5 416.5 1014.24 416.5Z" fill="black"/>
<path fill-rule="evenodd" clip-rule="evenodd" d="M1189.65 333.086C1185.88 334.494 1178.84 334.996 1177 335C1177 335 1168.7 334.931 1163.86 333.086C1158.42 331.007 1155.38 328.977 1151.7 324.511C1149.21 321.489 1147.26 316.288 1146.38 313.658C1146.02 312.579 1145.77 311.47 1145.58 310.348L1141.49 286.194C1141.49 286.194 1140.99 282.702 1141 280.452C1141.02 275.101 1141.75 271.959 1143.92 267.054C1146.15 262.016 1148.1 259.319 1152.19 255.57C1156.54 251.574 1159.68 249.828 1165.32 247.945C1169.7 246.483 1172.38 246.038 1177 246C1181.96 246.167 1183.81 246.479 1188.55 247.945C1193.29 249.522 1198.13 252.318 1201.81 255.57C1205.49 258.822 1208.07 262.671 1210.08 267.054C1212.09 271.437 1213 275.669 1213 280.452C1213 282.255 1212.8 284.411 1212.51 286.194L1207.65 310.027C1207.4 311.256 1207.07 312.468 1206.64 313.644C1205.6 316.437 1203.43 321.821 1201.32 324.473C1198.4 328.149 1194.16 331.402 1189.65 333.086ZM1187.19 326.387C1184.15 327.573 1178.48 327.996 1177 328C1177 328 1170.31 327.942 1166.42 326.387C1162.03 324.635 1159.59 322.925 1156.62 319.161C1154.67 316.687 1153.14 312.481 1152.4 310.21C1152.06 309.171 1151.83 308.105 1151.66 307.026L1148.39 286.871C1148.39 286.871 1147.99 283.928 1148 282.032C1148.02 277.523 1148.6 274.876 1150.35 270.742C1152.15 266.496 1153.72 264.224 1157.01 261.065C1160.52 257.697 1163.05 256.226 1167.59 254.639C1171.12 253.407 1173.27 253.032 1177 253C1181 253.141 1182.49 253.403 1186.3 254.639C1190.12 255.968 1194.02 258.324 1196.99 261.065C1199.95 263.805 1202.03 267.048 1203.65 270.742C1205.27 274.436 1206 278.002 1206 282.032C1206 283.552 1205.84 285.369 1205.61 286.871L1201.73 306.733C1201.5 307.917 1201.2 309.084 1200.8 310.219C1199.93 312.626 1198.24 316.961 1196.59 319.129C1194.24 322.227 1190.82 324.968 1187.19 326.387Z" fill="black"/>
</svg>
